icons/gamepad-fill.svg

<svg viewBox="0 0 24 24" fill="currentColor" xmlns="http://www.w3.org/2000/svg"><path d="M17 4C20.3137 4 23 6.68629 23 10V14C23 17.3137 20.3137 20 17 20H7C3.68629 20 1 17.3137 1 14V10C1 6.68629 3.68629 4 7 4H17ZM10 9H8V11H6V13H7.999L8 15H10L9.999 13H12V11H10V9ZM18 13H16V15H18V13ZM16 9H14V11H16V9Z"/></svg>

<svg xmlns="http://www.w3.org/2000/svg" viewBox="0 0 24 24">
    <g>
        <path fill="none" d="M0 0h24v24H0z"/>
        <path d="M17 4a6 6 0 0 1 6 6v4a6 6 0 0 1-6 6H7a6 6 0 0 1-6-6v-4a6 6 0 0 1 6-6h10zm-7 5H8v2H6v2h1.999L8 15h2l-.001-2H12v-2h-2V9zm8 4h-2v2h2v-2zm-2-4h-2v2h2V9z"/>
    </g>
</svg>
